X: 157
T:Boys of Malin, The
M:C|
L:1/8
R:reel
D:Paddy Glackin: Ceol ar an bhFidil le Paddy Glackin.
Z:id:hn-reel-45
K:A
ABcd eAce|fAdf edcB|ABcd eAce|1 fdBc d2 cB:|2 fdBc defg||
|:aA~A2 cAce|~a3g fefg| aA~A2 cAce|1fdBc defg:|2fdBc d2 cB||
|:Aece Aece|Aece d2cB|Aece Aece|fdBc d2cB:|
%  ABC2Win Version 2.1 11.06.2001
